;FLAVOR:Marlin
;TIME:544
;Filament used: 0.120804m
;l height: 0.2
;MINX:90.2
;MINY:90.2
;MINZ:0.2
;MAXX:129.8
;MAXY:129.8
;MAXZ:0.8
;POSTPROCESSED
;Generated with Cura_SteamEngine 4.4.0
M140 S60
M105
M190 S60
M104 S195
M105
M109 S195
M82 ;absolute extrusion mode
M201 X500.00 Y500.00 Z100.00 E5000.00 ;Setup machine max acceleration
M203 X500.00 Y500.00 Z10.00 E50.00 ;Setup machine max feedrate
M204 P500.00 R1000.00 T500.00 ;Setup Print/Retract/Travel acceleration
M205 X8.00 Y8.00 Z0.40 E5.00 ;Setup Jerk
M220 S100 ;Reset Feedrate
M221 S100 ;Reset Flowrate

G28 ;Home

G92 E0 ;Reset Extruder
G1 Z2.0 F3000 ;Move Z Axis up
G1 X10.1 Y20 Z0.28 F5000.0 ;Move to start position
G1 X10.1 Y200.0 Z0.28 F1500.0 E15 ;Draw the first line
G1 X10.4 Y200.0 Z0.28 F5000.0 ;Move to side a little
G1 X10.4 Y20 Z0.28 F1500.0 E30 ;Draw the second line
G92 E0 ;Reset Extruder
G1 Z2.0 F3000 ;Move Z Axis up

M141 S28
M83 ;relative extrusion mode
G1 F1500 E-7
;LAYER_COUNT:4
;LAYER:0
M117 l 1 test kocka of 4
M107
;MESH:test kocka.stl
G0 F6000 X90.6 Y90.6 Z0.2
;TYPE:WALL-INNER
G1 F1500 E7
G1 F600 X129.4 Y90.6 E0.98723
G1 X129.4 Y129.4 E0.98723
G1 X90.6 Y129.4 E0.98723
G1 X90.6 Y90.6 E0.98723
G0 F6000 X90.2 Y90.2
;TYPE:WALL-OUTER
G1 F600 X129.8 Y90.2 E0.94831
G1 X129.8 Y129.8 E0.94831
G1 X90.2 Y129.8 E0.94831
G1 X90.2 Y90.2 E0.94831
G0 F6000 X90.6 Y90.2
G0 X90.64 Y90.64
G0 X90.679 Y90.679
;TYPE:FILL
G1 F600 X129.319 Y129.319 E1.47218
G0 F6000 X129.3 Y129.319
G0 X129.3 Y126.491
G0 X129.319 Y126.491
G1 F600 X93.508 Y90.68 E1.3644
G0 F6000 X93.508 Y90.7
G0 X96.336 Y90.7
G0 X96.336 Y90.68
G1 F600 X129.319 Y123.663 E1.25665
G0 F6000 X129.3 Y123.663
G0 X129.3 Y120.834
G0 X129.319 Y120.834
G1 F600 X99.165 Y90.68 E1.14886
G0 F6000 X99.165 Y90.7
G0 X101.993 Y90.7
G0 X101.993 Y90.68
G1 F600 X129.319 Y118.006 E1.04112
G0 F6000 X129.3 Y118.006
G0 X129.3 Y115.177
G0 X129.319 Y115.177
G1 F600 X104.822 Y90.68 E0.93333
G0 F6000 X104.822 Y90.7
G0 X107.65 Y90.7
G0 X107.65 Y90.68
G1 F600 X129.319 Y112.349 E0.82559
G0 F6000 X129.3 Y112.349
G0 X129.3 Y109.52
G0 X129.319 Y109.52
G1 F600 X110.479 Y90.68 E0.7178
G0 F6000 X110.479 Y90.7
G0 X113.307 Y90.7
G0 X113.307 Y90.68
G1 F600 X129.319 Y106.692 E0.61006
G0 F6000 X129.3 Y106.692
G0 X129.3 Y103.864
G0 X129.319 Y103.864
G1 F600 X116.135 Y90.68 E0.50231
G0 F6000 X116.135 Y90.7
G0 X118.964 Y90.7
G0 X118.964 Y90.68
G1 F600 X129.319 Y101.035 E0.39452
G0 F6000 X129.3 Y101.035
G0 X129.3 Y98.207
G0 X129.319 Y98.207
G1 F600 X121.792 Y90.68 E0.28678
G0 F6000 X121.792 Y90.7
G0 X124.621 Y90.7
G0 X124.621 Y90.68
G1 F600 X129.319 Y95.378 E0.17899
G0 F6000 X129.3 Y95.378
G0 X129.3 Y92.55
G0 X129.319 Y92.55
G1 F600 X127.449 Y90.68 E0.07125
G1 F1500 E-7
G0 F6000 X127.449 Y90.7
G0 X90.7 Y93.507
G0 X90.679 Y93.507
G1 F1500 E7
G1 F600 X126.49 Y129.319 E1.36442
G0 F6000 X126.49 Y129.3
G0 X123.662 Y129.3
G0 X123.662 Y129.319
G1 F600 X90.679 Y96.336 E1.25665
G0 F6000 X90.7 Y96.336
G0 X90.7 Y99.164
G0 X90.679 Y99.164
G1 F600 X120.833 Y129.319 E1.14888
G0 F6000 X120.833 Y129.3
G0 X118.005 Y129.3
G0 X118.005 Y129.319
G1 F600 X90.679 Y101.993 E1.04112
G0 F6000 X90.7 Y101.993
G0 X90.7 Y104.821
G0 X90.679 Y104.821
G1 F600 X115.177 Y129.319 E0.93337
G0 F6000 X115.177 Y129.3
G0 X112.348 Y129.3
G0 X112.348 Y129.319
G1 F600 X90.679 Y107.649 E0.82561
G0 F6000 X90.7 Y107.649
G0 X90.7 Y110.478
G0 X90.679 Y110.478
G1 F600 X109.52 Y129.319 E0.71784
G0 F6000 X109.52 Y129.3
G0 X106.691 Y129.3
G0 X106.691 Y129.319
G1 F600 X90.679 Y113.306 E0.61007
G0 F6000 X90.7 Y113.306
G0 X90.7 Y116.135
G0 X90.679 Y116.135
G1 F600 X103.863 Y129.319 E0.50231
G0 F6000 X103.863 Y129.3
G0 X101.034 Y129.3
G0 X101.034 Y129.319
G1 F600 X90.679 Y118.963 E0.39454
G0 F6000 X90.7 Y118.963
G0 X90.7 Y121.792
G0 X90.679 Y121.792
G1 F600 X98.206 Y129.319 E0.28678
G0 F6000 X98.206 Y129.3
G0 X95.378 Y129.3
G0 X95.378 Y129.319
G1 F600 X90.679 Y124.62 E0.17903
G0 F6000 X90.7 Y124.62
G0 X90.7 Y127.448
G0 X90.679 Y127.448
G1 F600 X92.549 Y129.319 E0.07127
G0 F6000 X92.549 Y129
G1 F1500 E-7
;MESH:NONMESH
G0 F300 X92.549 Y129 Z0.4
G0 F6000 X90.67 Y90.67
G0 X90.6 Y90.6
;TIME_ELAPSED:116.459223
;LAYER:1
M117 l 2 test kocka of 4
M140 S60
M106 S85
;TYPE:WALL-INNER
;MESH:test kocka.stl
G1 F1500 E7
G1 F300 X129.4 Y90.6 E1.09692
G1 X129.4 Y129.4 E1.09692
G1 X90.6 Y129.4 E1.09692
G1 X90.6 Y90.6 E1.09692
G0 F10800 X90.2 Y90.2
;TYPE:WALL-OUTER
G1 F300 X129.8 Y90.2 E1.05368
G1 X129.8 Y129.8 E1.05368
G1 X90.2 Y129.8 E1.05368
G1 X90.2 Y90.2 E1.05368
G0 F10800 X90.6 Y90.2
G0 X90.64 Y90.64
G0 X90.64 Y90.7
G0 X90.7 Y92.549
G0 X90.68 Y92.549
;TYPE:FILL
G1 F600 X92.55 Y90.679 E0.07916
G0 F10800 X92.55 Y90.7
G0 X95.378 Y90.7
G0 X95.378 Y90.679
G1 F600 X90.68 Y95.378 E0.1989
G0 F10800 X90.7 Y95.378
G0 X90.7 Y98.206
G0 X90.68 Y98.206
G1 F600 X98.207 Y90.679 E0.31864
G0 F10800 X98.207 Y90.7
G0 X101.035 Y90.7
G0 X101.035 Y90.679
G1 F600 X90.68 Y101.034 E0.43836
G0 F10800 X90.7 Y101.034
G0 X90.7 Y103.863
G0 X90.68 Y103.863
G1 F600 X103.864 Y90.679 E0.55812
G0 F10800 X103.864 Y90.7
G0 X106.692 Y90.7
G0 X106.692 Y90.679
G1 F600 X90.68 Y106.691 E0.67784
G0 F10800 X90.7 Y106.691
G0 X90.7 Y109.52
G0 X90.68 Y109.52
G1 F600 X109.52 Y90.679 E0.79758
G0 F10800 X109.52 Y90.7
G0 X112.349 Y90.7
G0 X112.349 Y90.679
G1 F600 X90.68 Y112.348 E0.91732
G0 F10800 X90.7 Y112.348
G0 X90.7 Y115.177
G0 X90.68 Y115.177
G1 F600 X115.177 Y90.679 E1.03706
G0 F10800 X115.177 Y90.7
G0 X118.006 Y90.7
G0 X118.006 Y90.679
G1 F600 X90.68 Y118.005 E1.1568
G0 F10800 X90.7 Y118.005
G0 X90.7 Y120.833
G0 X90.68 Y120.833
G1 F600 X120.834 Y90.679 E1.27652
G0 F10800 X120.834 Y90.7
G0 X123.663 Y90.7
G0 X123.663 Y90.679
G1 F600 X90.68 Y123.662 E1.39628
G0 F10800 X90.7 Y123.662
G0 X90.7 Y126.49
G0 X90.68 Y126.49
G1 F600 X126.491 Y90.679 E1.516
G0 F10800 X126.491 Y90.7
G0 X129.319 Y90.7
G0 X129.319 Y90.68
G1 F600 X90.68 Y129.319 E1.63571
G0 F10800 X90.7 Y129.319
G0 X93.507 Y129.3
G0 X93.507 Y129.319
G1 F600 X129.319 Y93.508 E1.51602
G0 F10800 X129.3 Y93.508
G0 X129.3 Y96.336
G0 X129.319 Y96.336
G1 F600 X96.336 Y129.319 E1.39628
G0 F10800 X96.336 Y129.3
G0 X99.164 Y129.3
G0 X99.164 Y129.319
G1 F600 X129.319 Y99.165 E1.27654
G0 F10800 X129.3 Y99.165
G0 X129.3 Y101.993
G0 X129.319 Y101.993
G1 F600 X101.993 Y129.319 E1.1568
G0 F10800 X101.993 Y129.3
G0 X104.821 Y129.3
G0 X104.821 Y129.319
G1 F600 X129.319 Y104.822 E1.03706
G0 F10800 X129.3 Y104.822
G0 X129.3 Y107.65
G0 X129.319 Y107.65
G1 F600 X107.649 Y129.319 E0.91734
G0 F10800 X107.649 Y129.3
G0 X110.478 Y129.3
G0 X110.478 Y129.319
G1 F600 X129.319 Y110.479 E0.79758
G0 F10800 X129.3 Y110.479
G0 X129.3 Y113.307
G0 X129.319 Y113.307
G1 F600 X113.306 Y129.319 E0.67786
G0 F10800 X113.306 Y129.3
G0 X116.135 Y129.3
G0 X116.135 Y129.319
G1 F600 X129.319 Y116.135 E0.55812
G0 F10800 X129.3 Y116.135
G0 X129.3 Y118.964
G0 X129.319 Y118.964
G1 F600 X118.963 Y129.319 E0.43838
G0 F10800 X118.963 Y129.3
G0 X121.792 Y129.3
G0 X121.792 Y129.319
G1 F600 X129.319 Y121.792 E0.31864
G0 F10800 X129.3 Y121.792
G0 X129.3 Y124.621
G0 X129.319 Y124.621
G1 F600 X124.62 Y129.319 E0.1989
G0 F10800 X124.62 Y129.3
G0 X127.448 Y129.3
G0 X127.448 Y129.319
G1 F600 X129.319 Y127.449 E0.07918
G0 F10800 X129 Y127.449
G1 F1500 E-7
;MESH:NONMESH
G0 F300 X129 Y127.449 Z0.6
G0 F10800 X90.67 Y90.67
G0 X90.6 Y90.6
;TIME_ELAPSED:259.312916
;LAYER:2
M117 l 3 test kocka of 4
M106 S170
;TYPE:WALL-INNER
;MESH:test kocka.stl
G1 F1500 E7
G1 F300 X129.4 Y90.6 E1.09692
G1 X129.4 Y129.4 E1.09692
G1 X90.6 Y129.4 E1.09692
G1 X90.6 Y90.6 E1.09692
G0 F10800 X90.2 Y90.2
;TYPE:WALL-OUTER
G1 F300 X129.8 Y90.2 E1.05368
G1 X129.8 Y129.8 E1.05368
G1 X90.2 Y129.8 E1.05368
G1 X90.2 Y90.2 E1.05368
G0 F10800 X90.6 Y90.2
G0 X90.64 Y90.64
G0 X90.679 Y90.679
;TYPE:FILL
G1 F600 X129.319 Y129.319 E1.63576
G0 F10800 X129.3 Y129.319
G0 X129.3 Y126.491
G0 X129.319 Y126.491
G1 F600 X93.508 Y90.68 E1.516
G0 F10800 X93.508 Y90.7
G0 X96.336 Y90.7
G0 X96.336 Y90.68
G1 F600 X129.319 Y123.663 E1.39628
G0 F10800 X129.3 Y123.663
G0 X129.3 Y120.834
G0 X129.319 Y120.834
G1 F600 X99.165 Y90.68 E1.27652
G0 F10800 X99.165 Y90.7
G0 X101.993 Y90.7
G0 X101.993 Y90.68
G1 F600 X129.319 Y118.006 E1.1568
G0 F10800 X129.3 Y118.006
G0 X129.3 Y115.177
G0 X129.319 Y115.177
G1 F600 X104.822 Y90.68 E1.03704
G0 F10800 X104.822 Y90.7
G0 X107.65 Y90.7
G0 X107.65 Y90.68
G1 F600 X129.319 Y112.349 E0.91732
G0 F10800 X129.3 Y112.349
G0 X129.3 Y109.52
G0 X129.319 Y109.52
G1 F600 X110.479 Y90.68 E0.79756
G0 F10800 X110.479 Y90.7
G0 X113.307 Y90.7
G0 X113.307 Y90.68
G1 F600 X129.319 Y106.692 E0.67784
G0 F10800 X129.3 Y106.692
G0 X129.3 Y103.864
G0 X129.319 Y103.864
G1 F600 X116.135 Y90.68 E0.55812
G0 F10800 X116.135 Y90.7
G0 X118.964 Y90.7
G0 X118.964 Y90.68
G1 F600 X129.319 Y101.035 E0.43836
G0 F10800 X129.3 Y101.035
G0 X129.3 Y98.207
G0 X129.319 Y98.207
G1 F600 X121.792 Y90.68 E0.31864
G0 F10800 X121.792 Y90.7
G0 X124.621 Y90.7
G0 X124.621 Y90.68
G1 F600 X129.319 Y95.378 E0.19888
G0 F10800 X129.3 Y95.378
G0 X129.3 Y92.55
G0 X129.319 Y92.55
G1 F600 X127.449 Y90.68 E0.07916
G1 F1500 E-7
G0 F10800 X127.449 Y90.7
G0 X90.7 Y93.507
G0 X90.679 Y93.507
G1 F1500 E7
G1 F600 X126.49 Y129.319 E1.51602
G0 F10800 X126.49 Y129.3
G0 X123.662 Y129.3
G0 X123.662 Y129.319
G1 F600 X90.679 Y96.336 E1.39628
G0 F10800 X90.7 Y96.336
G0 X90.7 Y99.164
G0 X90.679 Y99.164
G1 F600 X120.833 Y129.319 E1.27654
G0 F10800 X120.833 Y129.3
G0 X118.005 Y129.3
G0 X118.005 Y129.319
G1 F600 X90.679 Y101.993 E1.1568
G0 F10800 X90.7 Y101.993
G0 X90.7 Y104.821
G0 X90.679 Y104.821
G1 F600 X115.177 Y129.319 E1.03708
G0 F10800 X115.177 Y129.3
G0 X112.348 Y129.3
G0 X112.348 Y129.319
G1 F600 X90.679 Y107.649 E0.91734
G0 F10800 X90.7 Y107.649
G0 X90.7 Y110.478
G0 X90.679 Y110.478
G1 F600 X109.52 Y129.319 E0.7976
G0 F10800 X109.52 Y129.3
G0 X106.691 Y129.3
G0 X106.691 Y129.319
G1 F600 X90.679 Y113.306 E0.67786
G0 F10800 X90.7 Y113.306
G0 X90.7 Y116.135
G0 X90.679 Y116.135
G1 F600 X103.863 Y129.319 E0.55812
G0 F10800 X103.863 Y129.3
G0 X101.034 Y129.3
G0 X101.034 Y129.319
G1 F600 X90.679 Y118.963 E0.43838
G0 F10800 X90.7 Y118.963
G0 X90.7 Y121.792
G0 X90.679 Y121.792
G1 F600 X98.206 Y129.319 E0.31864
G0 F10800 X98.206 Y129.3
G0 X95.378 Y129.3
G0 X95.378 Y129.319
G1 F600 X90.679 Y124.62 E0.19892
G0 F10800 X90.7 Y124.62
G0 X90.7 Y127.448
G0 X90.679 Y127.448
G1 F600 X92.549 Y129.319 E0.07918
G0 F10800 X92.549 Y129
G1 F1500 E-7
;MESH:NONMESH
G0 F300 X92.549 Y129 Z0.8
G0 F10800 X90.67 Y90.67
G0 X90.6 Y90.6
;TIME_ELAPSED:402.929457
;LAYER:3
M117 l 4 test kocka of 4
M106 S255
;TYPE:WALL-INNER
;MESH:test kocka.stl
G1 F1500 E7
G1 F300 X129.4 Y90.6 E1.09692
G1 X129.4 Y129.4 E1.09692
G1 X90.6 Y129.4 E1.09692
G1 X90.6 Y90.6 E1.09692
G0 F10800 X90.2 Y90.2
;TYPE:WALL-OUTER
G1 F300 X129.8 Y90.2 E1.05368
G1 X129.8 Y129.8 E1.05368
G1 X90.2 Y129.8 E1.05368
G1 X90.2 Y90.2 E1.05368
G0 F10800 X90.6 Y90.2
G0 X90.64 Y90.64
G0 X90.64 Y90.7
G0 X90.7 Y92.549
G0 X90.68 Y92.549
;TYPE:FILL
G1 F600 X92.55 Y90.679 E0.07916
G0 F10800 X92.55 Y90.7
G0 X95.378 Y90.7
G0 X95.378 Y90.679
G1 F600 X90.68 Y95.378 E0.1989
G0 F10800 X90.7 Y95.378
G0 X90.7 Y98.206
G0 X90.68 Y98.206
G1 F600 X98.207 Y90.679 E0.31864
G0 F10800 X98.207 Y90.7
G0 X101.035 Y90.7
G0 X101.035 Y90.679
G1 F600 X90.68 Y101.034 E0.43836
G0 F10800 X90.7 Y101.034
G0 X90.7 Y103.863
G0 X90.68 Y103.863
G1 F600 X103.864 Y90.679 E0.55812
G0 F10800 X103.864 Y90.7
G0 X106.692 Y90.7
G0 X106.692 Y90.679
G1 F600 X90.68 Y106.691 E0.67784
G0 F10800 X90.7 Y106.691
G0 X90.7 Y109.52
G0 X90.68 Y109.52
G1 F600 X109.52 Y90.679 E0.79758
G0 F10800 X109.52 Y90.7
G0 X112.349 Y90.7
G0 X112.349 Y90.679
G1 F600 X90.68 Y112.348 E0.91732
G0 F10800 X90.7 Y112.348
G0 X90.7 Y115.177
G0 X90.68 Y115.177
G1 F600 X115.177 Y90.679 E1.03706
G0 F10800 X115.177 Y90.7
G0 X118.006 Y90.7
G0 X118.006 Y90.679
G1 F600 X90.68 Y118.005 E1.1568
G0 F10800 X90.7 Y118.005
G0 X90.7 Y120.833
G0 X90.68 Y120.833
G1 F600 X120.834 Y90.679 E1.27652
G0 F10800 X120.834 Y90.7
G0 X123.663 Y90.7
G0 X123.663 Y90.679
G1 F600 X90.68 Y123.662 E1.39628
G0 F10800 X90.7 Y123.662
G0 X90.7 Y126.49
G0 X90.68 Y126.49
G1 F600 X126.491 Y90.679 E1.516
G0 F10800 X126.491 Y90.7
G0 X129.319 Y90.7
G0 X129.319 Y90.68
G1 F600 X90.68 Y129.319 E1.63571
G0 F10800 X90.7 Y129.319
G0 X93.507 Y129.3
G0 X93.507 Y129.319
G1 F600 X129.319 Y93.508 E1.51602
G0 F10800 X129.3 Y93.508
G0 X129.3 Y96.336
G0 X129.319 Y96.336
G1 F600 X96.336 Y129.319 E1.39628
G0 F10800 X96.336 Y129.3
G0 X99.164 Y129.3
G0 X99.164 Y129.319
G1 F600 X129.319 Y99.165 E1.27654
G0 F10800 X129.3 Y99.165
G0 X129.3 Y101.993
G0 X129.319 Y101.993
G1 F600 X101.993 Y129.319 E1.1568
G0 F10800 X101.993 Y129.3
G0 X104.821 Y129.3
G0 X104.821 Y129.319
G1 F600 X129.319 Y104.822 E1.03706
G0 F10800 X129.3 Y104.822
G0 X129.3 Y107.65
G0 X129.319 Y107.65
G1 F600 X107.649 Y129.319 E0.91734
G0 F10800 X107.649 Y129.3
G0 X110.478 Y129.3
G0 X110.478 Y129.319
G1 F600 X129.319 Y110.479 E0.79758
G0 F10800 X129.3 Y110.479
G0 X129.3 Y113.307
G0 X129.319 Y113.307
G1 F600 X113.306 Y129.319 E0.67786
G0 F10800 X113.306 Y129.3
G0 X116.135 Y129.3
G0 X116.135 Y129.319
G1 F600 X129.319 Y116.135 E0.55812
G0 F10800 X129.3 Y116.135
G0 X129.3 Y118.964
G0 X129.319 Y118.964
G1 F600 X118.963 Y129.319 E0.43838
G0 F10800 X118.963 Y129.3
G0 X121.792 Y129.3
G0 X121.792 Y129.319
G1 F600 X129.319 Y121.792 E0.31864
G0 F10800 X129.3 Y121.792
G0 X129.3 Y124.621
G0 X129.319 Y124.621
G1 F600 X124.62 Y129.319 E0.1989
G0 F10800 X124.62 Y129.3
G0 X127.448 Y129.3
G0 X127.448 Y129.319
G1 F600 X129.319 Y127.449 E0.07918
G0 F10800 X129 Y127.449
;TIME_ELAPSED:544.850549
G1 F1500 E-7
M140 S0
M141 S0
M82 ;absolute extrusion mode
M107
G91 ;Relative positioning
G1 E-2 F2700 ;Retract a bit
G1 E-2 Z0.2 F2400 ;Retract and raise Z
G1 X5 Y5 F3000 ;Wipe out
G1 Z10 ;Raise Z more
G90 ;Absolute positionning

G1 X0 Y220 ;Present print
M106 S0 ;Turn-off fan
M104 S0 ;Turn-off hotend
M140 S0 ;Turn-off bed

M84 X Y E ;Disable all steppers but Z

M82 ;absolute extrusion mode
M104 S0
;End of Gcode
;SETTING_3 {"extruder_quality": ["[general]\\nversion = 4\\nname = Standard Qual
;SETTING_3 ity #2\\ndefinition = creality_ender3\\n\\n[metadata]\\nposition = 0\
;SETTING_3 \ntype = quality_changes\\nquality_type = standard\\n\\n[values]\\nbo
;SETTING_3 ttom_layers = 0\\ncoasting_volume = 0.1\\ninfill_material_flow = 90\\
;SETTING_3 ninfill_pattern = lines\\nironing_flow = 8.0\\nlimit_support_retracti
;SETTING_3 ons = False\\nmaterial_flow = 85\\nmaterial_flow_layer_0 = 90\\nmater
;SETTING_3 ial_print_temperature = 195\\nmold_angle = 60\\nraft_margin = 10\\nre
;SETTING_3 tract_at_layer_change = True\\nretraction_amount = 7\\nretraction_com
;SETTING_3 bing_max_distance = 5\\nretraction_extrusion_window = 7\\nskin_materi
;SETTING_3 al_flow = 80\\nskin_overlap = 0\\nskirt_brim_material_flow = 80\\nski
;SETTING_3 rt_gap = 4\\nskirt_line_count = 4\\nsmall_hole_max_size = 10\\nspeed_
;SETTING_3 layer_0 = 10.0\\nspeed_print = 10.0\\nspeed_travel = 180.0\\nsupport_
;SETTING_3 angle = 60\\nsupport_bottom_enable = False\\nsupport_conical_angle = 
;SETTING_3 40\\nsupport_connect_zigzags = False\\nsupport_infill_angles = [0 ]\\
;SETTING_3 nsupport_interface_angles = [90 ]\\nsupport_interface_density = 100\\
;SETTING_3 nsupport_interface_pattern = lines\\nsupport_z_distance = 0.2\\ntop_l
;SETTING_3 ayers = 0\\ntravel_avoid_supports = False\\nwall_0_material_flow = 80
;SETTING_3 \\nwall_0_wipe_dist = 0.4\\nwall_line_count = 2\\nz_seam_corner = z_s
;SETTING_3 eam_corner_inner\\nz_seam_type = shortest\\n\\n"], "global_quality": 
;SETTING_3 "[general]\\nversion = 4\\nname = Standard Quality #2\\ndefinition = 
;SETTING_3 creality_ender3\\n\\n[metadata]\\ntype = quality_changes\\nquality_ty
;SETTING_3 pe = standard\\n\\n[values]\\nadaptive_layer_height_variation = 0.05\
;SETTING_3 \nadhesion_type = none\\nrelative_extrusion = True\\nretraction_combi
;SETTING_3 ng = all\\nspeed_slowdown_layers = 1\\nsupport_type = everywhere\\n\\
;SETTING_3 n"}
