;FLAVOR:Marlin
;TIME:386
;Filament used: 0.0989648m
;l height: 0.2
;MINX:70.2
;MINY:70.2
;MINZ:0.2
;MAXX:149.8
;MAXY:149.8
;MAXZ:0.2
;POSTPROCESSED
;Generated with Cura_SteamEngine 4.4.0
M140 S60
M105
M190 S60
M104 S195
M105
M109 S195
M82 ;absolute extrusion mode
M201 X500.00 Y500.00 Z100.00 E5000.00 ;Setup machine max acceleration
M203 X500.00 Y500.00 Z10.00 E50.00 ;Setup machine max feedrate
M204 P500.00 R1000.00 T500.00 ;Setup Print/Retract/Travel acceleration
M205 X8.00 Y8.00 Z0.40 E5.00 ;Setup Jerk
M220 S100 ;Reset Feedrate
M221 S100 ;Reset Flowrate

G28 ;Home

G92 E0 ;Reset Extruder
G1 Z2.0 F3000 ;Move Z Axis up
G1 X10.1 Y20 Z0.28 F5000.0 ;Move to start position
G1 X10.1 Y200.0 Z0.28 F1500.0 E15 ;Draw the first line
G1 X10.4 Y200.0 Z0.28 F5000.0 ;Move to side a little
G1 X10.4 Y20 Z0.28 F1500.0 E30 ;Draw the second line
G92 E0 ;Reset Extruder
G1 Z2.0 F3000 ;Move Z Axis up

M141 S28
M83 ;relative extrusion mode
G1 F1500 E-7
;LAYER_COUNT:1
;LAYER:0
M117 l 1 test kocka of 1
M107
;MESH:test kocka.stl
G0 F6000 X70.6 Y70.6 Z0.2
;TYPE:WALL-INNER
G1 F1500 E7
G1 F600 X149.4 Y70.6 E2.00499
G1 X149.4 Y149.4 E2.00499
G1 X70.6 Y149.4 E2.00499
G1 X70.6 Y70.6 E2.00499
G0 F6000 X70.2 Y70.2
;TYPE:WALL-OUTER
G1 F600 X149.8 Y70.2 E1.9062
G1 X149.8 Y149.8 E1.9062
G1 X70.2 Y149.8 E1.9062
G1 X70.2 Y70.2 E1.9062
G0 F6000 X70.6 Y70.2
G0 X70.64 Y70.64
G0 X70.679 Y70.679
;TYPE:FILL
G1 F600 X149.319 Y149.319 E2.99618
G0 F6000 X149.3 Y149.319
G0 X149.3 Y146.491
G0 X149.319 Y146.491
G1 F600 X73.508 Y70.68 E2.88839
G0 F6000 X73.508 Y70.7
G0 X76.337 Y70.7
G0 X76.337 Y70.68
G1 F600 X149.319 Y143.662 E2.78061
G0 F6000 X149.3 Y143.662
G0 X149.3 Y140.834
G0 X149.319 Y140.834
G1 F600 X79.165 Y70.68 E2.67286
G0 F6000 X79.165 Y70.7
G0 X81.993 Y70.7
G0 X81.993 Y70.68
G1 F600 X149.319 Y138.006 E2.56511
G0 F6000 X149.3 Y138.006
G0 X149.3 Y135.177
G0 X149.319 Y135.177
G1 F600 X84.822 Y70.68 E2.45733
G0 F6000 X84.822 Y70.7
G0 X87.65 Y70.7
G0 X87.65 Y70.68
G1 F600 X149.319 Y132.349 E2.34958
G0 F6000 X149.3 Y132.349
G0 X149.3 Y129.52
G0 X149.319 Y129.52
G1 F600 X90.479 Y70.68 E2.2418
G0 F6000 X90.479 Y70.7
G0 X93.307 Y70.7
G0 X93.307 Y70.68
G1 F600 X149.319 Y126.692 E2.13405
G0 F6000 X149.3 Y126.692
G0 X149.3 Y123.863
G0 X149.319 Y123.863
G1 F600 X96.136 Y70.68 E2.02627
G0 F6000 X96.136 Y70.7
G0 X98.964 Y70.7
G0 X98.964 Y70.68
G1 F600 X149.319 Y121.035 E1.91852
G0 F6000 X149.3 Y121.035
G0 X149.3 Y118.207
G0 X149.319 Y118.207
G1 F600 X101.792 Y70.68 E1.81077
G0 F6000 X101.792 Y70.7
G0 X104.621 Y70.7
G0 X104.621 Y70.68
G1 F600 X149.319 Y115.378 E1.70299
G0 F6000 X149.3 Y115.378
G0 X149.3 Y112.55
G0 X149.319 Y112.55
G1 F600 X107.449 Y70.68 E1.59524
G0 F6000 X107.449 Y70.7
G0 X110.278 Y70.7
G0 X110.278 Y70.68
G1 F600 X149.319 Y109.721 E1.48746
G0 F6000 X149.3 Y109.721
G0 X149.3 Y106.893
G0 X149.319 Y106.893
G1 F600 X113.106 Y70.68 E1.37971
G0 F6000 X113.106 Y70.7
G0 X115.935 Y70.7
G0 X115.935 Y70.68
G1 F600 X149.319 Y104.064 E1.27193
G0 F6000 X149.3 Y104.064
G0 X149.3 Y101.236
G0 X149.319 Y101.236
G1 F600 X118.763 Y70.68 E1.16418
G0 F6000 X118.763 Y70.7
G0 X121.591 Y70.7
G0 X121.591 Y70.68
G1 F600 X149.319 Y98.408 E1.05643
G0 F6000 X149.3 Y98.408
G0 X149.3 Y95.579
G0 X149.319 Y95.579
G1 F600 X124.42 Y70.68 E0.94865
G0 F6000 X124.42 Y70.7
G0 X127.248 Y70.7
G0 X127.248 Y70.68
G1 F600 X149.319 Y92.751 E0.8409
G0 F6000 X149.3 Y92.751
G0 X149.3 Y89.922
G0 X149.319 Y89.922
G1 F600 X130.077 Y70.68 E0.73312
G0 F6000 X130.077 Y70.7
G0 X132.905 Y70.7
G0 X132.905 Y70.68
G1 F600 X149.319 Y87.094 E0.62537
G0 F6000 X149.3 Y87.094
G0 X149.3 Y84.265
G0 X149.319 Y84.265
G1 F600 X135.734 Y70.68 E0.51759
G0 F6000 X135.734 Y70.7
G0 X138.562 Y70.7
G0 X138.562 Y70.68
G1 F600 X149.319 Y81.437 E0.40984
G0 F6000 X149.3 Y81.437
G0 X149.3 Y78.609
G0 X149.319 Y78.609
G1 F600 X141.39 Y70.68 E0.30209
G0 F6000 X141.39 Y70.7
G0 X144.219 Y70.7
G0 X144.219 Y70.68
G1 F600 X149.319 Y75.78 E0.19431
G0 F6000 X149.3 Y75.78
G0 X149.3 Y72.952
G0 X149.319 Y72.952
G1 F600 X147.047 Y70.68 E0.08656
G1 F1500 E-7
G0 F6000 X147.047 Y70.7
G0 X70.7 Y73.507
G0 X70.679 Y73.507
G1 F1500 E7
G1 F600 X146.49 Y149.319 E2.88841
G0 F6000 X146.49 Y149.3
G0 X143.662 Y149.3
G0 X143.662 Y149.319
G1 F600 X70.679 Y76.336 E2.78065
G0 F6000 X70.7 Y76.336
G0 X70.7 Y79.164
G0 X70.679 Y79.164
G1 F600 X140.833 Y149.319 E2.67288
G0 F6000 X140.833 Y149.3
G0 X138.005 Y149.3
G0 X138.005 Y149.319
G1 F600 X70.679 Y81.993 E2.56511
G0 F6000 X70.7 Y81.993
G0 X70.7 Y84.821
G0 X70.679 Y84.821
G1 F600 X135.176 Y149.319 E2.45735
G0 F6000 X135.176 Y149.3
G0 X132.348 Y149.3
G0 X132.348 Y149.319
G1 F600 X70.679 Y87.65 E2.34958
G0 F6000 X70.7 Y87.65
G0 X70.7 Y90.478
G0 X70.679 Y90.478
G1 F600 X129.52 Y149.319 E2.24184
G0 F6000 X129.52 Y149.3
G0 X126.691 Y149.3
G0 X126.691 Y149.319
G1 F600 X70.679 Y93.306 E2.13407
G0 F6000 X70.7 Y93.306
G0 X70.7 Y96.135
G0 X70.679 Y96.135
G1 F600 X123.863 Y149.319 E2.02631
G0 F6000 X123.863 Y149.3
G0 X121.034 Y149.3
G0 X121.034 Y149.319
G1 F600 X70.679 Y98.963 E1.91854
G0 F6000 X70.7 Y98.963
G0 X70.7 Y101.792
G0 X70.679 Y101.792
G1 F600 X118.206 Y149.319 E1.81077
G0 F6000 X118.206 Y149.3
G0 X115.377 Y149.3
G0 X115.377 Y149.319
G1 F600 X70.679 Y104.62 E1.70301
G0 F6000 X70.7 Y104.62
G0 X70.7 Y107.449
G0 X70.679 Y107.449
G1 F600 X112.549 Y149.319 E1.59524
G0 F6000 X112.549 Y149.3
G0 X109.721 Y149.3
G0 X109.721 Y149.319
G1 F600 X70.679 Y110.277 E1.4875
G0 F6000 X70.7 Y110.277
G0 X70.7 Y113.105
G0 X70.679 Y113.105
G1 F600 X106.892 Y149.319 E1.37973
G0 F6000 X106.892 Y149.3
G0 X104.064 Y149.3
G0 X104.064 Y149.319
G1 F600 X70.679 Y115.934 E1.27197
G0 F6000 X70.7 Y115.934
G0 X70.7 Y118.762
G0 X70.679 Y118.762
G1 F600 X101.235 Y149.319 E1.1642
G0 F6000 X101.235 Y149.3
G0 X98.407 Y149.3
G0 X98.407 Y149.319
G1 F600 X70.679 Y121.591 E1.05643
G0 F6000 X70.7 Y121.591
G0 X70.7 Y124.419
G0 X70.679 Y124.419
G1 F600 X95.578 Y149.319 E0.94867
G0 F6000 X95.578 Y149.3
G0 X92.75 Y149.3
G0 X92.75 Y149.319
G1 F600 X70.679 Y127.248 E0.8409
G0 F6000 X70.7 Y127.248
G0 X70.7 Y130.076
G0 X70.679 Y130.076
G1 F600 X89.922 Y149.319 E0.73316
G0 F6000 X89.922 Y149.3
G0 X87.093 Y149.3
G0 X87.093 Y149.319
G1 F600 X70.679 Y132.904 E0.62539
G0 F6000 X70.7 Y132.904
G0 X70.7 Y135.733
G0 X70.679 Y135.733
G1 F600 X84.265 Y149.319 E0.51763
G0 F6000 X84.265 Y149.3
G0 X81.436 Y149.3
G0 X81.436 Y149.319
G1 F600 X70.679 Y138.561 E0.40986
G0 F6000 X70.7 Y138.561
G0 X70.7 Y141.39
G0 X70.679 Y141.39
G1 F600 X78.608 Y149.319 E0.30209
G0 F6000 X78.608 Y149.3
G0 X75.779 Y149.3
G0 X75.779 Y149.319
G1 F600 X70.679 Y144.218 E0.19433
G0 F6000 X70.7 Y144.218
G0 X70.7 Y147.047
G0 X70.679 Y147.047
G1 F600 X72.951 Y149.319 E0.08656
G0 F6000 X72.951 Y149
;TIME_ELAPSED:386.629088
G1 F1500 E-7
M140 S0
M141 S0
M82 ;absolute extrusion mode
G91 ;Relative positioning
G1 E-2 F2700 ;Retract a bit
G1 E-2 Z0.2 F2400 ;Retract and raise Z
G1 X5 Y5 F3000 ;Wipe out
G1 Z10 ;Raise Z more
G90 ;Absolute positionning

G1 X0 Y220 ;Present print
M106 S0 ;Turn-off fan
M104 S0 ;Turn-off hotend
M140 S0 ;Turn-off bed

M84 X Y E ;Disable all steppers but Z

M82 ;absolute extrusion mode
M104 S0
;End of Gcode
;SETTING_3 {"extruder_quality": ["[general]\\nversion = 4\\nname = Standard Qual
;SETTING_3 ity #2\\ndefinition = creality_ender3\\n\\n[metadata]\\nposition = 0\
;SETTING_3 \ntype = quality_changes\\nquality_type = standard\\n\\n[values]\\nbo
;SETTING_3 ttom_layers = 0\\ncoasting_volume = 0.1\\ninfill_material_flow = 90\\
;SETTING_3 ninfill_pattern = lines\\nironing_flow = 8.0\\nlimit_support_retracti
;SETTING_3 ons = False\\nmaterial_flow = 85\\nmaterial_flow_layer_0 = 90\\nmater
;SETTING_3 ial_print_temperature = 195\\nmold_angle = 60\\nraft_margin = 10\\nre
;SETTING_3 tract_at_layer_change = True\\nretraction_amount = 7\\nretraction_com
;SETTING_3 bing_max_distance = 5\\nretraction_extrusion_window = 7\\nskin_materi
;SETTING_3 al_flow = 80\\nskin_overlap = 0\\nskirt_brim_material_flow = 80\\nski
;SETTING_3 rt_gap = 4\\nskirt_line_count = 4\\nsmall_hole_max_size = 10\\nspeed_
;SETTING_3 layer_0 = 10.0\\nspeed_print = 10.0\\nspeed_travel = 180.0\\nsupport_
;SETTING_3 angle = 60\\nsupport_bottom_enable = False\\nsupport_conical_angle = 
;SETTING_3 40\\nsupport_connect_zigzags = False\\nsupport_infill_angles = [0 ]\\
;SETTING_3 nsupport_interface_angles = [90 ]\\nsupport_interface_density = 100\\
;SETTING_3 nsupport_interface_pattern = lines\\nsupport_z_distance = 0.2\\ntop_l
;SETTING_3 ayers = 0\\ntravel_avoid_supports = False\\nwall_0_material_flow = 80
;SETTING_3 \\nwall_0_wipe_dist = 0.4\\nwall_line_count = 2\\nz_seam_corner = z_s
;SETTING_3 eam_corner_inner\\nz_seam_type = shortest\\n\\n"], "global_quality": 
;SETTING_3 "[general]\\nversion = 4\\nname = Standard Quality #2\\ndefinition = 
;SETTING_3 creality_ender3\\n\\n[metadata]\\ntype = quality_changes\\nquality_ty
;SETTING_3 pe = standard\\n\\n[values]\\nadaptive_layer_height_variation = 0.05\
;SETTING_3 \nadhesion_type = none\\nrelative_extrusion = True\\nretraction_combi
;SETTING_3 ng = all\\nspeed_slowdown_layers = 1\\nsupport_type = everywhere\\n\\
;SETTING_3 n"}
