;FLAVOR:Marlin
;TIME:386
;Filament used: 0.0989648m
;l height: 0.2
;MINX:70.2
;MINY:70.2
;MINZ:0.2
;MAXX:149.8
;MAXY:149.8
;MAXZ:0.2
;POSTPROCESSED
;Generated with Cura_SteamEngine 4.4.0
M140 S60
M105
M190 S60
M104 S195
M105
M109 S195
M82 ;absolute extrusion mode
M201 X500.00 Y500.00 Z100.00 E5000.00 ;Setup machine max acceleration
M203 X500.00 Y500.00 Z10.00 E50.00 ;Setup machine max feedrate
M204 P500.00 R1000.00 T500.00 ;Setup Print/Retract/Travel acceleration
M205 X8.00 Y8.00 Z0.40 E5.00 ;Setup Jerk
M220 S100 ;Reset Feedrate
M221 S100 ;Reset Flowrate

G28 ;Home

G92 E0 ;Reset Extruder
G1 Z2.0 F3000 ;Move Z Axis up
G1 X10.1 Y20 Z0.28 F5000.0 ;Move to start position
G1 X10.1 Y200.0 Z0.28 F1500.0 E15 ;Draw the first line
G1 X10.4 Y200.0 Z0.28 F5000.0 ;Move to side a little
G1 X10.4 Y20 Z0.28 F1500.0 E30 ;Draw the second line
G92 E0 ;Reset Extruder
G1 Z2.0 F3000 ;Move Z Axis up

M141 S28
M83 ;relative extrusion mode
G1 F1500 E-7
;LAYER_COUNT:1
;LAYER:0
M117 l 1 test kocka of 1
M107
;MESH:test kocka.stl
G0 F6000 X70.6 Y70.6 Z0.2
;TYPE:WALL-INNER
G1 F1500 E7
G1 F600 X149.4 Y70.6 E2.00499
G1 X149.4 Y149.4 E2.00499
G1 X70.6 Y149.4 E2.00499
G1 X70.6 Y70.6 E2.00499
G0 F6000 X70.2 Y70.2
;TYPE:WALL-OUTER
G1 F600 X149.8 Y70.2 E1.9062
G1 X149.8 Y149.8 E1.9062
G1 X70.2 Y149.8 E1.9062
G1 X70.2 Y70.2 E1.9062
G0 F6000 X70.6 Y70.2
G0 X70.64 Y70.64
G0 X70.679 Y70.679
;TYPE:FILL
G1 F600 X83.786 Y83.786 E2.99618
G1 F600 X96.892 Y96.892 E1.99745
G1 F600 X109.999 Y109.999 E0.99873
G1 F600 X123.106 Y123.106 E0.99873
G1 F600 X136.212 Y136.212 E1.99745
G1 F600 X149.319 Y149.319 E2.99618
G0 F6000 X149.3 Y149.319
G0 X149.3 Y146.491
G0 X149.319 Y146.491
G1 F600 X136.684 Y133.856 E2.88839
G1 F600 X124.049 Y121.221 E1.92559
G1 F600 X111.413 Y108.586 E0.9628
G1 F600 X98.778 Y95.95 E0.9628
G1 F600 X86.143 Y83.315 E1.92559
G1 F600 X73.508 Y70.68 E2.88839
G0 F6000 X73.508 Y70.7
G0 X76.337 Y70.7
G0 X76.337 Y70.68
G1 F600 X88.501 Y82.844 E2.78061
G1 F600 X100.664 Y95.007 E1.85374
G1 F600 X112.828 Y107.171 E0.92687
G1 F600 X124.992 Y119.335 E0.92687
G1 F600 X137.155 Y131.498 E1.85374
G1 F600 X149.319 Y143.662 E2.78061
G0 F6000 X149.3 Y143.662
G0 X149.3 Y140.834
G0 X149.319 Y140.834
G1 F600 X137.627 Y129.142 E2.67286
G1 F600 X125.934 Y117.449 E1.78191
G1 F600 X114.242 Y105.757 E0.89095
G1 F600 X102.55 Y94.065 E0.89095
G1 F600 X90.857 Y82.372 E1.78191
G1 F600 X79.165 Y70.68 E2.67286
G0 F6000 X79.165 Y70.7
G0 X81.993 Y70.7
G0 X81.993 Y70.68
G1 F600 X93.214 Y81.901 E2.56511
G1 F600 X104.435 Y93.122 E1.71007
G1 F600 X115.656 Y104.343 E0.85504
G1 F600 X126.877 Y115.564 E0.85504
G1 F600 X138.098 Y126.785 E1.71007
G1 F600 X149.319 Y138.006 E2.56511
G0 F6000 X149.3 Y138.006
G0 X149.3 Y135.177
G0 X149.319 Y135.177
G1 F600 X138.57 Y124.427 E2.45733
G1 F600 X127.82 Y113.678 E1.63822
G1 F600 X117.07 Y102.928 E0.81911
G1 F600 X106.321 Y92.179 E0.81911
G1 F600 X95.572 Y81.43 E1.63822
G1 F600 X84.822 Y70.68 E2.45733
G0 F6000 X84.822 Y70.7
G0 X87.65 Y70.7
G0 X87.65 Y70.68
G1 F600 X97.928 Y80.958 E2.34958
G1 F600 X108.206 Y91.236 E1.56639
G1 F600 X118.484 Y101.514 E0.78319
G1 F600 X128.763 Y111.793 E0.78319
G1 F600 X139.041 Y122.071 E1.56639
G1 F600 X149.319 Y132.349 E2.34958
G0 F6000 X149.3 Y132.349
G0 X149.3 Y129.52
G0 X149.319 Y129.52
G1 F600 X139.512 Y119.713 E2.2418
G1 F600 X129.706 Y109.907 E1.49453
G1 F600 X119.899 Y100.1 E0.74727
G1 F600 X110.092 Y90.293 E0.74727
G1 F600 X100.286 Y80.487 E1.49453
G1 F600 X90.479 Y70.68 E2.2418
G0 F6000 X90.479 Y70.7
G0 X93.307 Y70.7
G0 X93.307 Y70.68
G1 F600 X102.642 Y80.015 E2.13405
G1 F600 X111.978 Y89.351 E1.4227
G1 F600 X121.313 Y98.686 E0.71135
G1 F600 X130.648 Y108.021 E0.71135
G1 F600 X139.984 Y117.357 E1.4227
G1 F600 X149.319 Y126.692 E2.13405
G0 F6000 X149.3 Y126.692
G0 X149.3 Y123.863
G0 X149.319 Y123.863
G1 F600 X140.455 Y114.999 E2.02627
G1 F600 X131.591 Y106.135 E1.35085
G1 F600 X122.727 Y97.272 E0.67542
G1 F600 X113.864 Y88.408 E0.67542
G1 F600 X105.0 Y79.544 E1.35085
G1 F600 X96.136 Y70.68 E2.02627
G0 F6000 X96.136 Y70.7
G0 X98.964 Y70.7
G0 X98.964 Y70.68
G1 F600 X107.356 Y79.073 E1.91852
G1 F600 X115.749 Y87.465 E1.27901
G1 F600 X124.141 Y95.858 E0.63951
G1 F600 X132.534 Y104.25 E0.63951
G1 F600 X140.926 Y112.642 E1.27901
G1 F600 X149.319 Y121.035 E1.91852
G0 F6000 X149.3 Y121.035
G0 X149.3 Y118.207
G0 X149.319 Y118.207
G1 F600 X141.398 Y110.286 E1.81077
G1 F600 X133.477 Y102.365 E1.20718
G1 F600 X125.555 Y94.444 E0.60359
G1 F600 X117.634 Y86.522 E0.60359
G1 F600 X109.713 Y78.601 E1.20718
G1 F600 X101.792 Y70.68 E1.81077
G0 F6000 X101.792 Y70.7
G0 X104.621 Y70.7
G0 X104.621 Y70.68
G1 F600 X112.071 Y78.13 E1.70299
G1 F600 X119.52 Y85.579 E1.13533
G1 F600 X126.97 Y93.029 E0.56766
G1 F600 X134.42 Y100.479 E0.56766
G1 F600 X141.869 Y107.928 E1.13533
G1 F600 X149.319 Y115.378 E1.70299
G0 F6000 X149.3 Y115.378
G0 X149.3 Y112.55
G0 X149.319 Y112.55
G1 F600 X142.341 Y105.572 E1.59524
G1 F600 X135.362 Y98.593 E1.06349
G1 F600 X128.384 Y91.615 E0.53175
G1 F600 X121.406 Y84.637 E0.53175
G1 F600 X114.427 Y77.658 E1.06349
G1 F600 X107.449 Y70.68 E1.59524
G0 F6000 X107.449 Y70.7
G0 X110.278 Y70.7
G0 X110.278 Y70.68
G1 F600 X116.785 Y77.187 E1.48746
G1 F600 X123.292 Y83.694 E0.99164
G1 F600 X129.798 Y90.201 E0.49582
G1 F600 X136.305 Y96.707 E0.49582
G1 F600 X142.812 Y103.214 E0.99164
G1 F600 X149.319 Y109.721 E1.48746
G0 F6000 X149.3 Y109.721
G0 X149.3 Y106.893
G0 X149.319 Y106.893
G1 F600 X143.284 Y100.858 E1.37971
G1 F600 X137.248 Y94.822 E0.91981
G1 F600 X131.212 Y88.787 E0.4599
G1 F600 X125.177 Y82.751 E0.4599
G1 F600 X119.141 Y76.716 E0.91981
G1 F600 X113.106 Y70.68 E1.37971
G0 F6000 X113.106 Y70.7
G0 X115.935 Y70.7
G0 X115.935 Y70.68
G1 F600 X121.499 Y76.244 E1.27193
G1 F600 X127.063 Y81.808 E0.84795
G1 F600 X132.627 Y87.372 E0.42398
G1 F600 X138.191 Y92.936 E0.42398
G1 F600 X143.755 Y98.5 E0.84795
G1 F600 X149.319 Y104.064 E1.27193
G0 F6000 X149.3 Y104.064
G0 X149.3 Y101.236
G0 X149.319 Y101.236
G1 F600 X144.226 Y96.143 E1.16418
G1 F600 X139.134 Y91.051 E0.77612
G1 F600 X134.041 Y85.958 E0.38806
G1 F600 X128.948 Y80.865 E0.38806
G1 F600 X123.856 Y75.773 E0.77612
G1 F600 X118.763 Y70.68 E1.16418
G0 F6000 X118.763 Y70.7
G0 X121.591 Y70.7
G0 X121.591 Y70.68
G1 F600 X126.212 Y75.301 E1.05643
G1 F600 X130.834 Y79.923 E0.70429
G1 F600 X135.455 Y84.544 E0.35214
G1 F600 X140.076 Y89.165 E0.35214
G1 F600 X144.698 Y93.787 E0.70429
G1 F600 X149.319 Y98.408 E1.05643
G0 F6000 X149.3 Y98.408
G0 X149.3 Y95.579
G0 X149.319 Y95.579
G1 F600 X145.169 Y91.429 E0.94865
G1 F600 X141.019 Y87.279 E0.63243
G1 F600 X136.869 Y83.13 E0.31622
G1 F600 X132.72 Y78.98 E0.31622
G1 F600 X128.57 Y74.83 E0.63243
G1 F600 X124.42 Y70.68 E0.94865
G0 F6000 X124.42 Y70.7
G0 X127.248 Y70.7
G0 X127.248 Y70.68
G1 F600 X130.927 Y74.359 E0.8409
G1 F600 X134.605 Y78.037 E0.5606
G1 F600 X138.284 Y81.716 E0.2803
G1 F600 X141.962 Y85.394 E0.2803
G1 F600 X145.64 Y89.073 E0.5606
G1 F600 X149.319 Y92.751 E0.8409
G0 F6000 X149.3 Y92.751
G0 X149.3 Y89.922
G0 X149.319 Y89.922
G1 F600 X130.077 Y70.68 E2.56592
G0 F6000 X130.077 Y70.7
G0 X132.905 Y70.7
G0 X132.905 Y70.68
G1 F600 X149.319 Y87.094 E2.18879
G0 F6000 X149.3 Y87.094
G0 X149.3 Y84.265
G0 X149.319 Y84.265
G1 F600 X135.734 Y70.68 E1.81156
G0 F6000 X135.734 Y70.7
G0 X138.562 Y70.7
G0 X138.562 Y70.68
G1 F600 X149.319 Y81.437 E1.43444
G0 F6000 X149.3 Y81.437
G0 X149.3 Y78.609
G0 X149.319 Y78.609
G1 F600 X141.39 Y70.68 E1.05732
G0 F6000 X141.39 Y70.7
G0 X144.219 Y70.7
G0 X144.219 Y70.68
G1 F600 X149.319 Y75.78 E0.68009
G0 F6000 X149.3 Y75.78
G0 X149.3 Y72.952
G0 X149.319 Y72.952
G1 F600 X147.047 Y70.68 E0.30296
G1 F1500 E-7
G0 F6000 X147.047 Y70.7
G0 X70.7 Y73.507
G0 X70.679 Y73.507
G1 F1500 E7
G1 F600 X83.314 Y86.142 E2.88841
G1 F600 X95.949 Y98.778 E1.92561
G1 F600 X108.585 Y111.413 E0.9628
G1 F600 X121.22 Y124.048 E0.9628
G1 F600 X133.855 Y136.684 E1.92561
G1 F600 X146.49 Y149.319 E2.88841
G0 F6000 X146.49 Y149.3
G0 X143.662 Y149.3
G0 X143.662 Y149.319
G1 F600 X131.498 Y137.155 E2.78065
G1 F600 X119.334 Y124.991 E1.85377
G1 F600 X107.171 Y112.827 E0.92688
G1 F600 X95.007 Y100.664 E0.92688
G1 F600 X82.843 Y88.5 E1.85377
G1 F600 X70.679 Y76.336 E2.78065
G0 F6000 X70.7 Y76.336
G0 X70.7 Y79.164
G0 X70.679 Y79.164
G1 F600 X82.371 Y90.856 E2.67288
G1 F600 X94.064 Y102.549 E1.78192
G1 F600 X105.756 Y114.242 E0.89096
G1 F600 X117.448 Y125.934 E0.89096
G1 F600 X129.141 Y137.626 E1.78192
G1 F600 X140.833 Y149.319 E2.67288
G0 F6000 X140.833 Y149.3
G0 X138.005 Y149.3
G0 X138.005 Y149.319
G1 F600 X126.784 Y138.098 E2.56511
G1 F600 X115.563 Y126.877 E1.71007
G1 F600 X104.342 Y115.656 E0.85504
G1 F600 X93.121 Y104.435 E0.85504
G1 F600 X81.9 Y93.214 E1.71007
G1 F600 X70.679 Y81.993 E2.56511
G0 F6000 X70.7 Y81.993
G0 X70.7 Y84.821
G0 X70.679 Y84.821
G1 F600 X81.428 Y95.571 E2.45735
G1 F600 X92.178 Y106.32 E1.63823
G1 F600 X102.927 Y117.07 E0.81912
G1 F600 X113.677 Y127.82 E0.81912
G1 F600 X124.426 Y138.569 E1.63823
G1 F600 X135.176 Y149.319 E2.45735
G0 F6000 X135.176 Y149.3
G0 X132.348 Y149.3
G0 X132.348 Y149.319
G1 F600 X122.07 Y139.041 E2.34958
G1 F600 X111.792 Y128.763 E1.56639
G1 F600 X101.514 Y118.484 E0.78319
G1 F600 X91.235 Y108.206 E0.78319
G1 F600 X80.957 Y97.928 E1.56639
G1 F600 X70.679 Y87.65 E2.34958
G0 F6000 X70.7 Y87.65
G0 X70.7 Y90.478
G0 X70.679 Y90.478
G1 F600 X80.486 Y100.285 E2.24184
G1 F600 X90.293 Y110.092 E1.49456
G1 F600 X100.1 Y119.898 E0.74728
G1 F600 X109.906 Y129.705 E0.74728
G1 F600 X119.713 Y139.512 E1.49456
G1 F600 X129.52 Y149.319 E2.24184
G0 F6000 X129.52 Y149.3
G0 X126.691 Y149.3
G0 X126.691 Y149.319
G1 F600 X117.356 Y139.983 E2.13407
G1 F600 X108.02 Y130.648 E1.42271
G1 F600 X98.685 Y121.312 E0.71136
G1 F600 X89.35 Y111.977 E0.71136
G1 F600 X80.014 Y102.641 E1.42271
G1 F600 X70.679 Y93.306 E2.13407
G0 F6000 X70.7 Y93.306
G0 X70.7 Y96.135
G0 X70.679 Y96.135
G1 F600 X79.543 Y104.999 E2.02631
G1 F600 X88.407 Y113.863 E1.35087
G1 F600 X97.271 Y122.727 E0.67544
G1 F600 X106.135 Y131.591 E0.67544
G1 F600 X114.999 Y140.455 E1.35087
G1 F600 X123.863 Y149.319 E2.02631
G0 F6000 X123.863 Y149.3
G0 X121.034 Y149.3
G0 X121.034 Y149.319
G1 F600 X112.642 Y140.926 E1.91854
G1 F600 X104.249 Y132.534 E1.27903
G1 F600 X95.857 Y124.141 E0.63951
G1 F600 X87.464 Y115.748 E0.63951
G1 F600 X79.072 Y107.356 E1.27903
G1 F600 X70.679 Y98.963 E1.91854
G0 F6000 X70.7 Y98.963
G0 X70.7 Y101.792
G0 X70.679 Y101.792
G1 F600 X78.6 Y109.713 E1.81077
G1 F600 X86.521 Y117.634 E1.20718
G1 F600 X94.442 Y125.555 E0.60359
G1 F600 X102.364 Y133.477 E0.60359
G1 F600 X110.285 Y141.398 E1.20718
G1 F600 X118.206 Y149.319 E1.81077
G0 F6000 X118.206 Y149.3
G0 X115.377 Y149.3
G0 X115.377 Y149.319
G1 F600 X107.927 Y141.869 E1.70301
G1 F600 X100.478 Y134.419 E1.13534
G1 F600 X93.028 Y126.969 E0.56767
G1 F600 X85.578 Y119.52 E0.56767
G1 F600 X78.129 Y112.07 E1.13534
G1 F600 X70.679 Y104.62 E1.70301
G0 F6000 X70.7 Y104.62
G0 X70.7 Y107.449
G0 X70.679 Y107.449
G1 F600 X77.657 Y114.427 E1.59524
G1 F600 X84.636 Y121.406 E1.06349
G1 F600 X91.614 Y128.384 E0.53175
G1 F600 X98.592 Y135.362 E0.53175
G1 F600 X105.571 Y142.341 E1.06349
G1 F600 X112.549 Y149.319 E1.59524
G0 F6000 X112.549 Y149.3
G0 X109.721 Y149.3
G0 X109.721 Y149.319
G1 F600 X103.214 Y142.812 E1.4875
G1 F600 X96.707 Y136.305 E0.99167
G1 F600 X90.2 Y129.798 E0.49583
G1 F600 X83.693 Y123.291 E0.49583
G1 F600 X77.186 Y116.784 E0.99167
G1 F600 X70.679 Y110.277 E1.4875
G0 F6000 X70.7 Y110.277
G0 X70.7 Y113.105
G0 X70.679 Y113.105
G1 F600 X76.715 Y119.141 E1.37973
G1 F600 X82.75 Y125.176 E0.91982
G1 F600 X88.785 Y131.212 E0.45991
G1 F600 X94.821 Y137.248 E0.45991
G1 F600 X100.856 Y143.283 E0.91982
G1 F600 X106.892 Y149.319 E1.37973
G0 F6000 X106.892 Y149.3
G0 X104.064 Y149.3
G0 X104.064 Y149.319
G1 F600 X98.5 Y143.755 E1.27197
G1 F600 X92.936 Y138.191 E0.84798
G1 F600 X87.371 Y132.626 E0.42399
G1 F600 X81.807 Y127.062 E0.42399
G1 F600 X76.243 Y121.498 E0.84798
G1 F600 X70.679 Y115.934 E1.27197
G0 F6000 X70.7 Y115.934
G0 X70.7 Y118.762
G0 X70.679 Y118.762
G1 F600 X75.772 Y123.855 E1.1642
G1 F600 X80.864 Y128.948 E0.77613
G1 F600 X85.957 Y134.041 E0.38807
G1 F600 X91.05 Y139.133 E0.38807
G1 F600 X96.142 Y144.226 E0.77613
G1 F600 X101.235 Y149.319 E1.1642
G0 F6000 X101.235 Y149.3
G0 X98.407 Y149.3
G0 X98.407 Y149.319
G1 F600 X93.786 Y144.698 E1.05643
G1 F600 X89.164 Y140.076 E0.70429
G1 F600 X84.543 Y135.455 E0.35214
G1 F600 X79.922 Y130.834 E0.35214
G1 F600 X75.3 Y126.212 E0.70429
G1 F600 X70.679 Y121.591 E1.05643
G0 F6000 X70.7 Y121.591
G0 X70.7 Y124.419
G0 X70.679 Y124.419
G1 F600 X74.829 Y128.569 E0.94867
G1 F600 X78.979 Y132.719 E0.63245
G1 F600 X83.129 Y136.869 E0.31622
G1 F600 X87.278 Y141.019 E0.31622
G1 F600 X91.428 Y145.169 E0.63245
G1 F600 X95.578 Y149.319 E0.94867
G0 F6000 X95.578 Y149.3
G0 X92.75 Y149.3
G0 X92.75 Y149.319
G1 F600 X89.072 Y145.641 E0.8409
G1 F600 X85.393 Y141.962 E0.5606
G1 F600 X81.715 Y138.284 E0.2803
G1 F600 X78.036 Y134.605 E0.2803
G1 F600 X74.358 Y130.927 E0.5606
G1 F600 X70.679 Y127.248 E0.8409
G0 F6000 X70.7 Y127.248
G0 X70.7 Y130.076
G0 X70.679 Y130.076
G1 F600 X89.922 Y149.319 E2.56606
G0 F6000 X89.922 Y149.3
G0 X87.093 Y149.3
G0 X87.093 Y149.319
G1 F600 X70.679 Y132.904 E2.18886
G0 F6000 X70.7 Y132.904
G0 X70.7 Y135.733
G0 X70.679 Y135.733
G1 F600 X84.265 Y149.319 E1.81171
G0 F6000 X84.265 Y149.3
G0 X81.436 Y149.3
G0 X81.436 Y149.319
G1 F600 X70.679 Y138.561 E1.43451
G0 F6000 X70.7 Y138.561
G0 X70.7 Y141.39
G0 X70.679 Y141.39
G1 F600 X78.608 Y149.319 E1.05732
G0 F6000 X78.608 Y149.3
G0 X75.779 Y149.3
G0 X75.779 Y149.319
G1 F600 X70.679 Y144.218 E0.68016
G0 F6000 X70.7 Y144.218
G0 X70.7 Y147.047
G0 X70.679 Y147.047
G1 F600 X72.951 Y149.319 E0.30296
G0 F6000 X72.951 Y149
;TIME_ELAPSED:386.629088
G1 F1500 E-7
M140 S0
M141 S0
M82 ;absolute extrusion mode
G91 ;Relative positioning
G1 E-2 F2700 ;Retract a bit
G1 E-2 Z0.2 F2400 ;Retract and raise Z
G1 X5 Y5 F3000 ;Wipe out
G1 Z10 ;Raise Z more
G90 ;Absolute positionning

G1 X0 Y220 ;Present print
M106 S0 ;Turn-off fan
M104 S0 ;Turn-off hotend
M140 S0 ;Turn-off bed

M84 X Y E ;Disable all steppers but Z

M82 ;absolute extrusion mode
M104 S0
;End of Gcode
;SETTING_3 {"extruder_quality": ["[general]\\nversion = 4\\nname = Standard Qual
;SETTING_3 ity #2\\ndefinition = creality_ender3\\n\\n[metadata]\\nposition = 0\
;SETTING_3 \ntype = quality_changes\\nquality_type = standard\\n\\n[values]\\nbo
;SETTING_3 ttom_layers = 0\\ncoasting_volume = 0.1\\ninfill_material_flow = 90\\
;SETTING_3 ninfill_pattern = lines\\nironing_flow = 8.0\\nlimit_support_retracti
;SETTING_3 ons = False\\nmaterial_flow = 85\\nmaterial_flow_layer_0 = 90\\nmater
;SETTING_3 ial_print_temperature = 195\\nmold_angle = 60\\nraft_margin = 10\\nre
;SETTING_3 tract_at_layer_change = True\\nretraction_amount = 7\\nretraction_com
;SETTING_3 bing_max_distance = 5\\nretraction_extrusion_window = 7\\nskin_materi
;SETTING_3 al_flow = 80\\nskin_overlap = 0\\nskirt_brim_material_flow = 80\\nski
;SETTING_3 rt_gap = 4\\nskirt_line_count = 4\\nsmall_hole_max_size = 10\\nspeed_
;SETTING_3 layer_0 = 10.0\\nspeed_print = 10.0\\nspeed_travel = 180.0\\nsupport_
;SETTING_3 angle = 60\\nsupport_bottom_enable = False\\nsupport_conical_angle = 
;SETTING_3 40\\nsupport_connect_zigzags = False\\nsupport_infill_angles = [0 ]\\
;SETTING_3 nsupport_interface_angles = [90 ]\\nsupport_interface_density = 100\\
;SETTING_3 nsupport_interface_pattern = lines\\nsupport_z_distance = 0.2\\ntop_l
;SETTING_3 ayers = 0\\ntravel_avoid_supports = False\\nwall_0_material_flow = 80
;SETTING_3 \\nwall_0_wipe_dist = 0.4\\nwall_line_count = 2\\nz_seam_corner = z_s
;SETTING_3 eam_corner_inner\\nz_seam_type = shortest\\n\\n"], "global_quality": 
;SETTING_3 "[general]\\nversion = 4\\nname = Standard Quality #2\\ndefinition = 
;SETTING_3 creality_ender3\\n\\n[metadata]\\ntype = quality_changes\\nquality_ty
;SETTING_3 pe = standard\\n\\n[values]\\nadaptive_layer_height_variation = 0.05\
;SETTING_3 \nadhesion_type = none\\nrelative_extrusion = True\\nretraction_combi
;SETTING_3 ng = all\\nspeed_slowdown_layers = 1\\nsupport_type = everywhere\\n\\
;SETTING_3 n"}

